resources/svg/regular/cube.svg

<svg xmlns="http://www.w3.org/2000/svg" fill="currentColor" stroke="none" viewBox="0 0 24 24"><path d="m21.406 6.086-9-4a1.001 1.001 0 0 0-.813 0l-9 4c-.02.009-.034.024-.054.035-.028.014-.058.023-.084.04-.022.015-.039.034-.06.05a.87.87 0 0 0-.19.194c-.02.028-.041.053-.059.081a1.119 1.119 0 0 0-.076.165c-.009.027-.023.052-.031.079A1.013 1.013 0 0 0 2 7v10c0 .396.232.753.594.914l9 4c.13.058.268.086.406.086a.997.997 0 0 0 .402-.096l.004.01 9-4A.999.999 0 0 0 22 17V7a.999.999 0 0 0-.594-.914zM12 4.095 18.538 7 12 9.905l-1.308-.581L5.463 7 12 4.095zM4 16.351V8.539l7 3.111v7.811l-7-3.11zm9 3.11V11.65l7-3.111v7.812l-7 3.11z"/></svg>

<svg xmlns="http://www.w3.org/2000/svg" fill="currentColor" stroke="none" viewBox="0 0 24 24"><path d="M21.406,6.086l-9-4c-0.26-0.115-0.553-0.115-0.813,0l-9,4C2.573,6.095,2.559,6.11,2.539,6.121 c-0.028,0.014-0.058,0.023-0.084,0.04c-0.022,0.015-0.039,0.034-0.06,0.05c-0.028,0.021-0.055,0.044-0.08,0.068 C2.274,6.318,2.238,6.36,2.205,6.405C2.185,6.433,2.164,6.458,2.146,6.486C2.115,6.539,2.092,6.594,2.07,6.651 C2.061,6.678,2.047,6.703,2.039,6.73C2.015,6.817,2,6.907,2,7v10c0,0.396,0.232,0.753,0.594,0.914l9,4 C11.724,21.972,11.862,22,12,22c0.139,0,0.273-0.039,0.402-0.096l0.004,0.01l9-4C21.768,17.753,22,17.396,22,17V7 C22,6.604,21.768,6.247,21.406,6.086z M12,4.095L18.538,7L12,9.905l-1.308-0.581L5.463,7L12,4.095z M4,16.351V8.539l7,3.111v7.811 L4,16.351z M13,19.461V11.65l7-3.111v7.812L13,19.461z"/></svg>
